assets/logo.svg

<?xml version="1.0" encoding="UTF-8" standalone="no"?>
<svg width="118px" height="118px" viewBox="0 0 118 118" version="1.1" xmlns="http://www.w3.org/2000/svg" xmlns:xlink="http://www.w3.org/1999/xlink" xmlns:sketch="http://www.bohemiancoding.com/sketch/ns">
    <!-- Generator: Sketch 3.3.1 (12002) - http://www.bohemiancoding.com/sketch -->
    <title>Shape</title>
    <desc>Created with Sketch.</desc>
    <defs></defs>
    <g id="Page-1" stroke="none" stroke-width="1" fill="none" fill-rule="evenodd" sketch:type="MSPage">
        <path d="M0,118 L118,118 L118,-6.88338275e-15 L0,-6.88338275e-15 L0,118 Z M3,115 L3,4.99999981 L57.5,115 L60.5,115 L5,3.00000005 L113,3.00000005 L59,111.970001 L60.5,115 L115,4.99999981 L115,115 L3,115 Z" id="Shape" fill="#FFFFFF" sketch:type="MSShapeGroup"></path>
    </g>
</svg>

<svg width="118" height="118" viewBox="0 0 118 118" xmlns="http://www.w3.org/2000/svg"><title>Shape</title><path d="M0 118h118V0H0v118zm3-3V5l54.5 110h3L5 3h108L59 111.97l1.5 3.03L115 5v110H3z" fill="#FFF" fill-rule="evenodd"/></svg>
